X:486
T: Ding ding luo gege luo
N: C1905
O: China,Zhejiang Pingyang
S: III, 622]
R: Shange, Mutong shange]
M: 2/4
L: 1/16
K: F
d2d2c4 | d2d2c4 | g2z2f4 |
d2cdf2g2 | f2d2c4 | d12
z2f2d2z2 | c2d2f2gg | f2fgd4 |
c2d2f2gg | d2dfc4 | d4d2f2 | d4z4

@@@ Tune index: 7041
